components/ui-node-icon/src/pivot/pivot.medium.svg

<svg width="24" height="24" viewBox="0 0 24 24" fill="none" xmlns="http://www.w3.org/2000/svg">
  <path d="M6.5 3C7.32843 3 8 3.67157 8 4.5L8 19.5C8 20.3284 7.32843 21 6.5 21L4.5 21C3.67157 21 3 20.3284 3 19.5L3 4.5C3 3.67157 3.67157 3 4.5 3L6.5 3Z" fill="var(--tbl--colors--icons--transformation--tertiary)"/>
  <path fill-rule="evenodd" clip-rule="evenodd" d="M4.5 3C3.67157 3 3 3.67157 3 4.5V8H19.5C20.3284 8 21 7.32843 21 6.5V4.5C21 3.67157 20.3284 3 19.5 3H4.5ZM20.4239 12.8827C20.5787 12.509 20.4931 12.0789 20.2071 11.7929L18.2071 9.79289C17.8166 9.40237 17.1834 9.40237 16.7929 9.79289L14.7929 11.7929C14.5069 12.0789 14.4213 12.509 14.5761 12.8827C14.7309 13.2564 15.0955 13.5 15.5 13.5H16.5C16.5 15.0653 16.0545 16.2955 15.2718 17.1271C14.4987 17.9485 13.285 18.5 11.5 18.5C10.9477 18.5 10.5 18.9477 10.5 19.5C10.5 20.0523 10.9477 20.5 11.5 20.5C13.715 20.5 15.5013 19.8015 16.7282 18.4979C17.9455 17.2045 18.5 15.4347 18.5 13.5H19.5C19.9045 13.5 20.2691 13.2564 20.4239 12.8827Z" fill="var(--tbl--colors--icons--transformation--primary)"/>
</svg>

<svg xmlns="http://www.w3.org/2000/svg" width="24" height="24" fill="none" viewBox="0 0 24 24">
  <path fill="var(--tbl--colors--icons--transformation--tertiary)" d="M6.5 3A1.5 1.5 0 0 1 8 4.5v15A1.5 1.5 0 0 1 6.5 21h-2A1.5 1.5 0 0 1 3 19.5v-15A1.5 1.5 0 0 1 4.5 3h2Z"/>
  <path fill="var(--tbl--colors--icons--transformation--primary)" fill-rule="evenodd" d="M4.5 3A1.5 1.5 0 0 0 3 4.5V8h16.5A1.5 1.5 0 0 0 21 6.5v-2A1.5 1.5 0 0 0 19.5 3h-15Zm15.924 9.883a1 1 0 0 0-.217-1.09l-2-2a1 1 0 0 0-1.414 0l-2 2A1 1 0 0 0 15.5 13.5h1c0 1.565-.445 2.796-1.228 3.627-.773.822-1.987 1.373-3.772 1.373a1 1 0 1 0 0 2c2.215 0 4.001-.698 5.228-2.002 1.217-1.294 1.772-3.063 1.772-4.998h1a1 1 0 0 0 .924-.617Z" clip-rule="evenodd"/>
</svg>
